svgs/thin/kit-medical.svg

<svg xmlns="http://www.w3.org/2000/svg" viewBox="0 0 576 512"><!--! Font Awesome Pro 6.6.0 by @fontawesome - https://fontawesome.com License - https://fontawesome.com/license (Commercial License) Copyright 2024 Fonticons, Inc. --><path d="M112 464l352 0 0-416L112 48l0 416zm-16 0L96 48 64 48C37.5 48 16 69.5 16 96l0 320c0 26.5 21.5 48 48 48l32 0zM64 32l32 0 8 0 8 0 352 0 8 0 8 0 32 0c35.3 0 64 28.7 64 64l0 320c0 35.3-28.7 64-64 64l-32 0-8 0-8 0-352 0-8 0-8 0-32 0c-35.3 0-64-28.7-64-64L0 96C0 60.7 28.7 32 64 32zM480 464l32 0c26.5 0 48-21.5 48-48l0-320c0-26.5-21.5-48-48-48l-32 0 0 416zM264 168l0 56c0 4.4-3.6 8-8 8l-56 0c-4.4 0-8 3.6-8 8l0 32c0 4.4 3.6 8 8 8l56 0c4.4 0 8 3.6 8 8l0 56c0 4.4 3.6 8 8 8l32 0c4.4 0 8-3.6 8-8l0-56c0-4.4 3.6-8 8-8l56 0c4.4 0 8-3.6 8-8l0-32c0-4.4-3.6-8-8-8l-56 0c-4.4 0-8-3.6-8-8l0-56c0-4.4-3.6-8-8-8l-32 0c-4.4 0-8 3.6-8 8zm8-24l32 0c13.3 0 24 10.7 24 24l0 48 48 0c13.3 0 24 10.7 24 24l0 32c0 13.3-10.7 24-24 24l-48 0 0 48c0 13.3-10.7 24-24 24l-32 0c-13.3 0-24-10.7-24-24l0-48-48 0c-13.3 0-24-10.7-24-24l0-32c0-13.3 10.7-24 24-24l48 0 0-48c0-13.3 10.7-24 24-24z"/></svg>

<svg xmlns="http://www.w3.org/2000/svg" viewBox="0 0 576 512"><!--! Font Awesome Pro 6.4.2 by @fontawesome - https://fontawesome.com License - https://fontawesome.com/license (Commercial License) Copyright 2023 Fonticons, Inc. --><path d="M112 464H464V48H112V464zm-16 0V48H64C37.5 48 16 69.5 16 96V416c0 26.5 21.5 48 48 48H96zM64 32H96h8 8H464h8 8 32c35.3 0 64 28.7 64 64V416c0 35.3-28.7 64-64 64H480h-8-8H112h-8H96 64c-35.3 0-64-28.7-64-64V96C0 60.7 28.7 32 64 32zM480 464h32c26.5 0 48-21.5 48-48V96c0-26.5-21.5-48-48-48H480V464zM264 168v56c0 4.4-3.6 8-8 8H200c-4.4 0-8 3.6-8 8v32c0 4.4 3.6 8 8 8h56c4.4 0 8 3.6 8 8v56c0 4.4 3.6 8 8 8h32c4.4 0 8-3.6 8-8V288c0-4.4 3.6-8 8-8h56c4.4 0 8-3.6 8-8V240c0-4.4-3.6-8-8-8H320c-4.4 0-8-3.6-8-8V168c0-4.4-3.6-8-8-8H272c-4.4 0-8 3.6-8 8zm8-24h32c13.3 0 24 10.7 24 24v48h48c13.3 0 24 10.7 24 24v32c0 13.3-10.7 24-24 24H328v48c0 13.3-10.7 24-24 24H272c-13.3 0-24-10.7-24-24V296H200c-13.3 0-24-10.7-24-24V240c0-13.3 10.7-24 24-24h48V168c0-13.3 10.7-24 24-24z"/></svg>
